X:340
T:Lady Elizabeth Lindsay
C:Nathaniel Gow
S:Kerr's Merry Melodies, Bk.2
Z:Nigel Gatherer
M:4/4
L:1/8
K:Bb
g|fc B<GG>B|F>BD>B Fg|fc B<GG>B|F>BD>d c3:|
g|fe fg|fe f>gd>b|fe f>gd>b|fB c3g|
fe fg|fe f>gd>b|g>bf>g d>fc>f|G>BF>D C3|]
